src/pos-icons/necklace.svg

<svg height="24" viewBox="0 0 24 24" width="24" xmlns="http://www.w3.org/2000/svg"><path d="m21.5 5h-2c0 4.14-3.36 7.5-7.5 7.5s-7.5-3.36-7.5-7.5h-2c.05 5.11 4.09 9.29 9.2 9.5-.6.9-1.7 2.7-1.7 3.5 0 2.67 4 2.67 4 0 0-.8-1.1-2.6-1.7-3.5 5.11-.21 9.15-4.39 9.2-9.5z"/></svg>

<?xml version="1.0" encoding="UTF-8"?><!DOCTYPE svg PUBLIC "-//W3C//DTD SVG 1.1//EN" "http://www.w3.org/Graphics/SVG/1.1/DTD/svg11.dtd"><svg xmlns="http://www.w3.org/2000/svg" xmlns:xlink="http://www.w3.org/1999/xlink" version="1.1" id="mdi-necklace" width="24" height="24" viewBox="0 0 24 24"><path d="M21.5 5H19.5C19.5 9.14 16.14 12.5 12 12.5C7.86 12.5 4.5 9.14 4.5 5H2.5C2.55 10.11 6.59 14.29 11.7 14.5C11.1 15.4 10 17.2 10 18C10 20.67 14 20.67 14 18C14 17.2 12.9 15.4 12.3 14.5C17.41 14.29 21.45 10.11 21.5 5Z" /></svg>
